icons/calendar-16.svg

<svg xmlns="http://www.w3.org/2000/svg" width="16" height="16" viewBox="0 0 16 16">
  <defs/>
  <path d="M4.75,0 C5.164,0 5.5,0.336 5.5,0.75 L5.5,2 L10.5,2 L10.5,0.75 C10.5,0.336 10.836,0 11.25,0 C11.664,0 12,0.336 12,0.75 L12,2 L13.25,2 C14.216,2 15,2.784 15,3.75 L15,14.25 C15,15.216 14.216,16 13.25,16 L2.75,16 C1.784,16 1,15.216 1,14.25 L1,3.75 C1,2.784 1.784,2 2.75,2 L4,2 L4,0.75 C4,0.336 4.336,0 4.75,0 Z M2.5,7.5 L2.5,14.25 C2.5,14.388 2.612,14.5 2.75,14.5 L13.25,14.5 C13.388,14.5 13.5,14.388 13.5,14.25 L13.5,7.5 Z M13.25,3.5 L2.75,3.5 C2.612,3.5 2.5,3.612 2.5,3.75 L2.5,6 L13.5,6 L13.5,3.75 C13.5,3.612 13.388,3.5 13.25,3.5 Z"/>
</svg>

<svg xmlns="http://www.w3.org/2000/svg" width="16" height="16" viewBox="0 0 16 16"><path fill-rule="evenodd" d="M4.75 0a.75.75 0 01.75.75V2h5V.75a.75.75 0 011.5 0V2h1.25c.966 0 1.75.784 1.75 1.75v10.5A1.75 1.75 0 0113.25 16H2.75A1.75 1.75 0 011 14.25V3.75C1 2.784 1.784 2 2.75 2H4V.75A.75.75 0 014.75 0zm0 3.5h8.5a.25.25 0 01.25.25V6h-11V3.75a.25.25 0 01.25-.25h2zm-2.25 4v6.75c0 .138.112.25.25.25h10.5a.25.25 0 00.25-.25V7.5h-11z"/></svg>
